Newaita-dark/emblems/48/emblem-web.svg

<svg height="48" viewBox="0 0 48 48" width="48" xmlns="http://www.w3.org/2000/svg"><path d="m960.065849 255.093763c-399.017035 0-720.088753 321.071719-720.088753 720.088754 0 398.859569 321.071718 719.931287 720.088753 719.931287 398.85957 0 719.931288-321.071718 719.931288-719.931287 0-399.017035-321.071718-720.088754-719.931288-720.088754zm0 159.984731c96.998616 0 188.171017 24.564585 267.533521 67.552608-65.663024 56.844968-161.086988 92.432123-267.533521 92.432123-106.603999 0-201.870497-35.587155-267.690986-92.432123 79.362504-42.988023 170.534905-67.552608 267.690986-67.552608zm-397.599847 165.02362c94.479171 94.951567 235.882998 154.945841 394.293076 154.945841h6.613542c158.252613 0 299.656439-59.994274 394.293076-154.945841 82.669276 83.299136 139.356779 192.73751 156.67796 315.088037h-1108.713079c17.321181-122.350527 74.008684-231.788901 156.835425-315.088037zm-156.835425 475.072768h1108.713079c-17.321181 122.350527-74.008684 231.631436-156.67796 314.930572-94.636637-94.951568-236.040463-154.945842-394.293076-154.945842h-6.613542c-158.410078 0-299.813905 59.994274-394.293076 154.945842-82.826741-83.299136-139.514244-192.580045-156.835425-314.930572zm554.435272 319.969461c106.446533 0 201.870497 35.587155 267.533521 92.432123-79.362504 43.145488-170.534905 67.552608-267.533521 67.552608-97.156081 0-188.328482-24.40712-267.690986-67.552608 65.820489-56.844968 161.086987-92.432123 267.690986-92.432123zm0 0" fill="none" stroke="#424242" stroke-linecap="round" stroke-linejoin="round" stroke-width="309.921265" transform="scale(.0248071)"/><path d="m14.882812 8.722656c-8.566406 4.945313-11.484374 15.828125-6.535156 24.398438 4.945313 8.570312 15.828125 11.484375 24.398438 6.535156 8.570312-4.945312 11.484375-15.828125 6.535156-24.398438-4.945312-8.566406-15.828125-11.484374-24.398438-6.535156zm1.984376 3.4375c2.085937-1.207031 4.347656-1.808594 6.589843-1.871094-.707031 2.039063-2.316406 3.988282-4.605469 5.308594-2.285156 1.320313-4.777343 1.738282-6.894531 1.332032 1.171875-1.910157 2.824219-3.566407 4.910157-4.769532zm-6.496094 8.472656c3.210937.867188 6.992187.40625 10.394531-1.558593l.144531-.082031c3.402344-1.964844 5.691406-5.007813 6.546875-8.222657 2.8125.765625 5.386719 2.414063 7.273438 4.824219l-23.816407 13.753906c-1.144531-2.84375-1.285156-5.894531-.542968-8.714844zm2.527344 12.152344 23.820312-13.753906c1.144531 2.84375 1.28125 5.898438.539062 8.714844-3.210937-.867188-6.992187-.40625-10.394531 1.558594l-.144531.082031c-3.402344 1.964843-5.691406 5.007812-6.546875 8.222656-2.8125-.765625-5.382813-2.410156-7.273437-4.824219zm15.878906-.003906c2.285156-1.320312 4.777344-1.738281 6.894531-1.332031-1.171875 1.910156-2.824219 3.566406-4.910156 4.769531-2.085938 1.207031-4.347657 1.8125-6.589844 1.871094.710937-2.039063 2.316406-3.984375 4.605469-5.308594zm0 0" fill="#fafafa"/></svg>

<?xml version="1.0" encoding="UTF-8"?>
<svg xmlns="http://www.w3.org/2000/svg" xmlns:xlink="http://www.w3.org/1999/xlink" width="48px" height="48px" viewBox="0 0 48 48" version="1.1">
<g id="surface1">
<path style="fill:none;stroke-width:309.921265;stroke-linecap:round;stroke-linejoin:round;stroke:rgb(25.882354%,25.882354%,25.882354%);stroke-opacity:1;stroke-miterlimit:4;" d="M 960.065849 255.093763 C 561.048814 255.093763 239.977096 576.165482 239.977096 975.182517 C 239.977096 1374.042086 561.048814 1695.113804 960.065849 1695.113804 C 1358.925419 1695.113804 1679.997137 1374.042086 1679.997137 975.182517 C 1679.997137 576.165482 1358.925419 255.093763 960.065849 255.093763 Z M 960.065849 415.078494 C 1057.064465 415.078494 1148.236866 439.643079 1227.59937 482.631102 C 1161.936346 539.47607 1066.512382 575.063225 960.065849 575.063225 C 853.46185 575.063225 758.195352 539.47607 692.374863 482.631102 C 771.737367 439.643079 862.909768 415.078494 960.065849 415.078494 Z M 562.466002 580.102114 C 656.945173 675.053681 798.349 735.047955 956.759078 735.047955 L 963.37262 735.047955 C 1121.625233 735.047955 1263.029059 675.053681 1357.665696 580.102114 C 1440.334972 663.40125 1497.022475 772.839624 1514.343656 895.190151 L 405.630577 895.190151 C 422.951758 772.839624 479.639261 663.40125 562.466002 580.102114 Z M 405.630577 1055.174882 L 1514.343656 1055.174882 C 1497.022475 1177.525409 1440.334972 1286.806318 1357.665696 1370.105454 C 1263.029059 1275.153886 1121.625233 1215.159612 963.37262 1215.159612 L 956.759078 1215.159612 C 798.349 1215.159612 656.945173 1275.153886 562.466002 1370.105454 C 479.639261 1286.806318 422.951758 1177.525409 405.630577 1055.174882 Z M 960.065849 1375.144343 C 1066.512382 1375.144343 1161.936346 1410.731498 1227.59937 1467.576466 C 1148.236866 1510.721954 1057.064465 1535.129074 960.065849 1535.129074 C 862.909768 1535.129074 771.737367 1510.721954 692.374863 1467.576466 C 758.195352 1410.731498 853.46185 1375.144343 960.065849 1375.144343 Z M 960.065849 1375.144343 " transform="matrix(0.0248071,0,0,0.0248071,0,0)"/>
<path style=" stroke:none;fill-rule:nonzero;fill:rgb(98.039216%,98.039216%,98.039216%);fill-opacity:1;" d="M 14.882812 8.722656 C 6.316406 13.667969 3.398438 24.550781 8.347656 33.121094 C 13.292969 41.691406 24.175781 44.605469 32.746094 39.65625 C 41.316406 34.710938 44.230469 23.828125 39.28125 15.257812 C 34.335938 6.691406 23.453125 3.773438 14.882812 8.722656 Z M 16.867188 12.160156 C 18.953125 10.953125 21.214844 10.351562 23.457031 10.289062 C 22.75 12.328125 21.140625 14.277344 18.851562 15.597656 C 16.566406 16.917969 14.074219 17.335938 11.957031 16.929688 C 13.128906 15.019531 14.78125 13.363281 16.867188 12.160156 Z M 10.371094 20.632812 C 13.582031 21.5 17.363281 21.039062 20.765625 19.074219 L 20.910156 18.992188 C 24.3125 17.027344 26.601562 13.984375 27.457031 10.769531 C 30.269531 11.535156 32.84375 13.183594 34.730469 15.59375 L 10.914062 29.347656 C 9.769531 26.503906 9.628906 23.453125 10.371094 20.632812 Z M 12.898438 32.785156 L 36.71875 19.03125 C 37.863281 21.875 38 24.929688 37.257812 27.746094 C 34.046875 26.878906 30.265625 27.339844 26.863281 29.304688 L 26.71875 29.386719 C 23.316406 31.351562 21.027344 34.394531 20.171875 37.609375 C 17.359375 36.84375 14.789062 35.199219 12.898438 32.785156 Z M 28.777344 32.78125 C 31.0625 31.460938 33.554688 31.042969 35.671875 31.449219 C 34.5 33.359375 32.847656 35.015625 30.761719 36.21875 C 28.675781 37.425781 26.414062 38.03125 24.171875 38.089844 C 24.882812 36.050781 26.488281 34.105469 28.777344 32.78125 Z M 28.777344 32.78125 "/>
</g>
</svg>
